svg/u2638.svg

<svg viewBox="0 0 128 128" xmlns="http://www.w3.org/2000/svg">
  <g>
    <path d="M116.46,3.96h-104c-4.42,0-8,3.58-8,8v104c0,4.42,3.58,8,8,8h104c4.42,0,8-3.58,8-8v-104 C124.46,7.54,120.88,3.96,116.46,3.96z" fill="#8E24AA"/>
    <path d="M110.16,3.96h-98.2c-4.13,0.03-7.47,3.37-7.5,7.5v97.9c-0.01,4.14,3.34,7.49,7.48,7.5 c0.01,0,0.01,0,0.02,0h98.1c4.14,0.01,7.49-3.34,7.5-7.48c0-0.01,0-0.01,0-0.02v-97.9c0.09-4.05-3.13-7.41-7.18-7.5 C110.31,3.96,110.23,3.96,110.16,3.96z" fill="#AB47BC"/>
    <path d="M40.16,12.86c0-2.3-1.6-3-10.8-2.7c-7.7,0.3-11.5,1.2-13.8,4 s-2.9,8.5-3,15.3c0,4.8,0,9.3,2.5,9.3c3.4,0,3.4-7.9,6.2-12.3C26.66,17.76,40.16,15.86,40.16,12.86z" opacity="0.3" fill="#FAFAFA" enable-background="new "/>
    <path d="M108.16,59.26c-0.18-0.2-0.43-0.31-0.7-0.3h-5.2c-0.51-0.02-0.92-0.4-1-0.9 c-0.78-7.89-3.88-15.37-8.9-21.5c-0.33-0.39-0.28-0.97,0.1-1.3l3.7-3.7c0.2-0.18,0.31-0.43,0.3-0.7c0-3.7-3.5-4.6-5.3-2.8l-3,3 c-0.34,0.38-0.91,0.42-1.3,0.1c-6.13-5.02-13.61-8.12-21.5-8.9c-0.5-0.08-0.88-0.49-0.9-1v-5.3c0.01-0.27-0.1-0.52-0.3-0.7 c-2.6-2.6-5.7-0.8-5.7,1.7v4.2c-0.02,0.51-0.4,0.92-0.9,1c-7.89,0.78-15.37,3.88-21.5,8.9c-0.39,0.33-0.97,0.28-1.3-0.1l-3.7-3.7 c-0.18-0.2-0.43-0.31-0.7-0.3c-3.7,0-4.6,3.5-2.8,5.3l3,3c0.38,0.34,0.42,0.91,0.1,1.3c-5.02,6.13-8.12,13.61-8.9,21.5 c-0.08,0.5-0.49,0.88-1,0.9h-5.3c-0.27-0.01-0.52,0.1-0.7,0.3c-2.6,2.6-0.8,5.7,1.7,5.7h4.2c0.51,0.02,0.92,0.4,1,0.9 c0.78,7.89,3.88,15.37,8.9,21.5c0.33,0.39,0.28,0.97-0.1,1.3l-3.7,3.7c-0.2,0.18-0.31,0.43-0.3,0.7c0,3.7,3.5,4.6,5.3,2.8l3-3 c0.34-0.38,0.91-0.42,1.3-0.1c6.13,5.02,13.61,8.12,21.5,8.9c0.5,0.08,0.88,0.49,0.9,1v5.2c-0.01,0.27,0.1,0.52,0.3,0.7 c2.6,2.6,5.7,0.8,5.7-1.7v-4.2c0.02-0.51,0.4-0.92,0.9-1c7.89-0.78,15.37-3.88,21.5-8.9c0.39-0.33,0.97-0.28,1.3,0.1l3.7,3.7 c0.18,0.2,0.43,0.31,0.7,0.3c3.7,0,4.6-3.5,2.8-5.3l-3-3c-0.38-0.34-0.42-0.91-0.1-1.3c5.02-6.13,8.12-13.61,8.9-21.5 c0.08-0.5,0.49-0.88,1-0.9h4.2C108.96,64.96,110.76,61.86,108.16,59.26z M64.46,28.16c0-0.55,0.44-1,0.99-1.01 c0.04,0,0.07,0,0.11,0.01c6.42,0.78,12.51,3.31,17.6,7.3c0.44,0.34,0.52,0.96,0.19,1.4c-0.03,0.03-0.06,0.07-0.09,0.1l-12.2,12.2 c-0.32,0.33-0.83,0.37-1.2,0.1c-1.41-0.84-2.92-1.48-4.5-1.9c-0.47-0.1-0.81-0.52-0.8-1C64.46,45.46,64.46,28.26,64.46,28.16z M39.76,34.46c5.06-3.98,11.11-6.5,17.5-7.3c0.55-0.06,1.04,0.35,1.09,0.89c0,0.03,0.01,0.07,0.01,0.11v17.2 c0.01,0.48-0.33,0.9-0.8,1c-1.59,0.38-3.11,1.02-4.5,1.9c-0.38,0.24-0.87,0.2-1.2-0.1l-12.1-12.2c-0.41-0.37-0.45-1-0.09-1.41 C39.7,34.52,39.73,34.49,39.76,34.46z M33.96,40.26c0.34-0.44,0.96-0.52,1.4-0.19c0.03,0.03,0.07,0.06,0.1,0.09l12.2,12.2 c0.33,0.32,0.37,0.83,0.1,1.2c-0.84,1.41-1.48,2.92-1.9,4.5c-0.1,0.47-0.52,0.81-1,0.8h-17.1c-0.55,0-1-0.44-1.01-0.99 c0-0.04,0-0.07,0.01-0.11C27.48,51.37,29.97,45.31,33.96,40.26z M35.46,83.66c-0.39,0.39-1.02,0.39-1.41,0 c-0.03-0.03-0.06-0.06-0.09-0.1c-4.01-5.08-6.54-11.17-7.3-17.6c-0.06-0.55,0.35-1.04,0.89-1.09c0.03,0,0.07-0.01,0.11-0.01h17.2 c0.48-0.01,0.9,0.33,1,0.8c0.38,1.59,1.02,3.11,1.9,4.5c0.24,0.38,0.2,0.87-0.1,1.2C47.66,71.46,35.46,83.66,35.46,83.66z M58.46,95.76c0,0.55-0.44,1-0.99,1.01c-0.04,0-0.07,0-0.11-0.01c-6.4-0.76-12.46-3.29-17.5-7.3c-0.44-0.34-0.52-0.96-0.19-1.4 c0.03-0.03,0.06-0.07,0.09-0.1l12.2-12.2c0.32-0.33,0.83-0.37,1.2-0.1c1.41,0.84,2.92,1.48,4.5,1.9c0.47,0.1,0.81,0.52,0.8,1V95.76 z M61.46,72.96c-6.08,0-11-4.92-11-11s4.92-11,11-11c6.08,0,11,4.92,11,11l0,0C72.46,68.04,67.53,72.96,61.46,72.96z M83.16,89.46 c-5.08,4.01-11.17,6.54-17.6,7.3c-0.55,0.06-1.04-0.35-1.09-0.89c0-0.03-0.01-0.07-0.01-0.11v-17.3c-0.01-0.48,0.33-0.9,0.8-1 c1.59-0.38,3.11-1.02,4.5-1.9c0.38-0.24,0.87-0.2,1.2,0.1l12.2,12.3C83.56,88.38,83.56,89.04,83.16,89.46z M88.96,83.66 c-0.34,0.44-0.96,0.52-1.4,0.19c-0.03-0.03-0.07-0.06-0.1-0.09l-12.2-12.2c-0.33-0.32-0.37-0.83-0.1-1.2 c0.84-1.41,1.48-2.92,1.9-4.5c0.1-0.47,0.52-0.81,1-0.8h17.2c0.55,0,1,0.44,1.01,0.99c0,0.04,0,0.07-0.01,0.11 C95.46,72.55,92.93,78.6,88.96,83.66z M95.26,58.96h-17.3c-0.48,0.01-0.9-0.33-1-0.8c-0.38-1.59-1.02-3.11-1.9-4.5 c-0.24-0.38-0.2-0.87,0.1-1.2l12.3-12.2c0.39-0.39,1.02-0.39,1.41,0c0.03,0.03,0.06,0.06,0.09,0.1c3.98,5.06,6.5,11.11,7.3,17.5 C96.26,58.43,95.83,58.91,95.26,58.96z" fill="#FAFAFA"/>
  </g>
</svg>

<svg viewBox="0 0 128 128" xmlns="http://www.w3.org/2000/svg">
  <defs/>
  <path d="M116.46,3.96 L12.46,3.96 C8.04,3.96 4.46,7.54 4.46,11.96 L4.46,115.96 C4.46,120.38 8.04,123.96 12.46,123.96 L116.46,123.96 C120.88,123.96 124.46,120.38 124.46,115.96 L124.46,11.96 C124.46,7.54 120.88,3.96 116.46,3.96 Z" fill="#8E24AA"/>
  <path d="M110.16,3.96 L11.96,3.96 C7.83,3.99 4.49,7.33 4.46,11.46 L4.46,109.36 C4.45,113.5 7.8,116.85 11.94,116.86 C11.95,116.86 11.95,116.86 11.96,116.86 L110.06,116.86 C114.2,116.87 117.55,113.52 117.56,109.38 C117.56,109.37 117.56,109.37 117.56,109.36 L117.56,11.46 C117.65,7.41 114.43,4.05 110.38,3.96 C110.31,3.96 110.23,3.96 110.16,3.96 Z" fill="#AB47BC"/>
  <path d="M40.16,12.86 C40.16,10.56 38.56,9.86 29.36,10.16 C21.66,10.46 17.86,11.36 15.56,14.16 C13.26,16.96 12.66,22.66 12.56,29.46 C12.56,34.26 12.56,38.76 15.06,38.76 C18.46,38.76 18.46,30.86 21.26,26.46 C26.66,17.76 40.16,15.86 40.16,12.86 Z" fill="#FAFAFA" opacity="0.3"/>
  <path d="M108.16,59.26 C107.98,59.06 107.73,58.95 107.46,58.96 L102.26,58.96 C101.75,58.94 101.34,58.56 101.26,58.06 C100.48,50.17 97.38,42.69 92.36,36.56 C92.03,36.17 92.08,35.59 92.46,35.26 L96.16,31.56 C96.36,31.38 96.47,31.13 96.46,30.86 C96.46,27.16 92.96,26.26 91.16,28.06 L88.16,31.06 C87.82,31.44 87.25,31.48 86.86,31.16 C80.73,26.14 73.25,23.04 65.36,22.26 C64.86,22.18 64.48,21.77 64.46,21.26 L64.46,15.96 C64.47,15.69 64.36,15.44 64.16,15.26 C61.56,12.66 58.46,14.46 58.46,16.96 L58.46,21.16 C58.44,21.67 58.06,22.08 57.56,22.16 C49.67,22.94 42.19,26.04 36.06,31.06 C35.67,31.39 35.09,31.34 34.76,30.96 L31.06,27.26 C30.88,27.06 30.63,26.95 30.36,26.96 C26.66,26.96 25.76,30.46 27.56,32.26 L30.56,35.26 C30.94,35.6 30.98,36.17 30.66,36.56 C25.64,42.69 22.54,50.17 21.76,58.06 C21.68,58.56 21.27,58.94 20.76,58.96 L15.46,58.96 C15.19,58.95 14.94,59.06 14.76,59.26 C12.16,61.86 13.96,64.96 16.46,64.96 L20.66,64.96 C21.17,64.98 21.58,65.36 21.66,65.86 C22.44,73.75 25.54,81.23 30.56,87.36 C30.89,87.75 30.84,88.33 30.46,88.66 L26.76,92.36 C26.56,92.54 26.45,92.79 26.46,93.06 C26.46,96.76 29.96,97.66 31.76,95.86 L34.76,92.86 C35.1,92.48 35.67,92.44 36.06,92.76 C42.19,97.78 49.67,100.88 57.56,101.66 C58.06,101.74 58.44,102.15 58.46,102.66 L58.46,107.86 C58.45,108.13 58.56,108.38 58.76,108.56 C61.36,111.16 64.46,109.36 64.46,106.86 L64.46,102.66 C64.48,102.15 64.86,101.74 65.36,101.66 C73.25,100.88 80.73,97.78 86.86,92.76 C87.25,92.43 87.83,92.48 88.16,92.86 L91.86,96.56 C92.04,96.76 92.29,96.87 92.56,96.86 C96.26,96.86 97.16,93.36 95.36,91.56 L92.36,88.56 C91.98,88.22 91.94,87.65 92.26,87.26 C97.28,81.13 100.38,73.65 101.16,65.76 C101.24,65.26 101.65,64.88 102.16,64.86 L106.36,64.86 C108.96,64.96 110.76,61.86 108.16,59.26 Z M64.46,28.16 C64.46,27.61 64.9,27.16 65.45,27.15 C65.49,27.15 65.52,27.15 65.56,27.16 C71.98,27.94 78.07,30.47 83.16,34.46 C83.6,34.8 83.68,35.42 83.35,35.86 C83.32,35.89 83.29,35.93 83.26,35.96 L71.06,48.16 C70.74,48.49 70.23,48.53 69.86,48.26 C68.45,47.42 66.94,46.78 65.36,46.36 C64.89,46.26 64.55,45.84 64.56,45.36 C64.46,45.46 64.46,28.26 64.46,28.16 Z M39.76,34.46 C44.82,30.48 50.87,27.96 57.26,27.16 C57.81,27.1 58.3,27.51 58.35,28.05 C58.35,28.08 58.36,28.12 58.36,28.16 L58.36,45.36 C58.37,45.84 58.03,46.26 57.56,46.36 C55.97,46.74 54.45,47.38 53.06,48.26 C52.68,48.5 52.19,48.46 51.86,48.16 L39.76,35.96 C39.35,35.59 39.31,34.96 39.67,34.55 C39.7,34.52 39.73,34.49 39.76,34.46 Z M33.96,40.26 C34.3,39.82 34.92,39.74 35.36,40.07 C35.39,40.1 35.43,40.13 35.46,40.16 L47.66,52.36 C47.99,52.68 48.03,53.19 47.76,53.56 C46.92,54.97 46.28,56.48 45.86,58.06 C45.76,58.53 45.34,58.87 44.86,58.86 L27.76,58.86 C27.21,58.86 26.76,58.42 26.75,57.87 C26.75,57.83 26.75,57.8 26.76,57.76 C27.48,51.37 29.97,45.31 33.96,40.26 Z M35.46,83.66 C35.07,84.05 34.44,84.05 34.05,83.66 C34.02,83.63 33.99,83.6 33.96,83.56 C29.95,78.48 27.42,72.39 26.66,65.96 C26.6,65.41 27.01,64.92 27.55,64.87 C27.58,64.87 27.62,64.86 27.66,64.86 L44.86,64.86 C45.34,64.85 45.76,65.19 45.86,65.66 C46.24,67.25 46.88,68.77 47.76,70.16 C48,70.54 47.96,71.03 47.66,71.36 C47.66,71.46 35.46,83.66 35.46,83.66 Z M58.46,95.76 C58.46,96.31 58.02,96.76 57.47,96.77 C57.43,96.77 57.4,96.77 57.36,96.76 C50.96,96 44.9,93.47 39.86,89.46 C39.42,89.12 39.34,88.5 39.67,88.06 C39.7,88.03 39.73,87.99 39.76,87.96 L51.96,75.76 C52.28,75.43 52.79,75.39 53.16,75.66 C54.57,76.5 56.08,77.14 57.66,77.56 C58.13,77.66 58.47,78.08 58.46,78.56 L58.46,95.76 Z M61.46,72.96 C55.38,72.96 50.46,68.04 50.46,61.96 C50.46,55.88 55.38,50.96 61.46,50.96 C67.54,50.96 72.46,55.88 72.46,61.96 L72.46,61.96 C72.46,68.04 67.53,72.96 61.46,72.96 Z M83.16,89.46 C78.08,93.47 71.99,96 65.56,96.76 C65.01,96.82 64.52,96.41 64.47,95.87 C64.47,95.84 64.46,95.8 64.46,95.76 L64.46,78.46 C64.45,77.98 64.79,77.56 65.26,77.46 C66.85,77.08 68.37,76.44 69.76,75.56 C70.14,75.32 70.63,75.36 70.96,75.66 L83.16,87.96 C83.56,88.38 83.56,89.04 83.16,89.46 Z M88.96,83.66 C88.62,84.1 88,84.18 87.56,83.85 C87.53,83.82 87.49,83.79 87.46,83.76 L75.26,71.56 C74.93,71.24 74.89,70.73 75.16,70.36 C76,68.95 76.64,67.44 77.06,65.86 C77.16,65.39 77.58,65.05 78.06,65.06 L95.26,65.06 C95.81,65.06 96.26,65.5 96.27,66.05 C96.27,66.09 96.27,66.12 96.26,66.16 C95.46,72.55 92.93,78.6 88.96,83.66 Z M95.26,58.96 L77.96,58.96 C77.48,58.97 77.06,58.63 76.96,58.16 C76.58,56.57 75.94,55.05 75.06,53.66 C74.82,53.28 74.86,52.79 75.16,52.46 L87.46,40.26 C87.85,39.87 88.48,39.87 88.87,40.26 C88.9,40.29 88.93,40.32 88.96,40.36 C92.94,45.42 95.46,51.47 96.26,57.86 C96.26,58.43 95.83,58.91 95.26,58.96 Z" fill="#FAFAFA"/>
</svg>
